svg/300/sharp/front_hand-fill.svg

<svg xmlns="http://www.w3.org/2000/svg" width="48" height="48" viewBox="0 -960 960 960"><path d="M496.677-60.002q-132.194 0-224.435-91.752-92.241-91.753-92.241-223.785v-404.46h45.384v274.23h112.154v-344.229h45.384v344.229h113.154v-384.229h45.384v384.229h113.154v-304.229h45.384v281.383q-14.308 18.461-23.692 39.77-9.385 21.308-9.385 44.614v50h-59.23q-55.954 0-92.592 42.831-36.639 42.83-36.639 101.015v21.537h33.077v-21.537q0-44.06 26.855-77.415 26.855-33.355 69.299-33.355h92.307v-83.076q0-38 26.384-64.385Q752.768-535 790.768-535h29.231v157.846q-5.693 133.031-98.57 225.092-92.878 92.06-224.752 92.06Z"/></svg>

<svg xmlns="http://www.w3.org/2000/svg" width="48" height="48" viewBox="0 -960 960 960"><path d="M496.68-60q-132.2 0-224.44-91.75Q180-243.51 180-375.54V-780h45.39v274.23h112.15V-850h45.38v344.23h113.16V-890h45.38v384.23h113.15V-810H700v281.39q-14.31 18.46-23.69 39.76-9.39 21.31-9.39 44.62v50h-59.23q-55.95 0-92.59 42.83t-36.64 101.01v21.54h33.08v-21.54q0-44.06 26.85-77.41 26.86-33.35 69.3-33.35H700v-83.08q0-38 26.38-64.39Q752.77-535 790.77-535H820v157.85q-5.69 133.03-98.57 225.09T496.68-60Z"/></svg>
